src/new/technology-icons/openshift.svg

<svg viewBox="0 0 38 38">
  <path d="M28,1H10a9,9,0,0,0-9,9V28a9,9,0,0,0,9,9H28a9,9,0,0,0,9-9V10a9,9,0,0,0-9-9Z" />
  <path
    fill="#fff"
    d="M10.09863,22.18994a.625.625,0,0,1-.25488-1.1958l2.74072-1.22021a.62492.62492,0,1,1,.50879,1.1416l-2.74072,1.22021A.619.619,0,0,1,10.09863,22.18994Z"
  />
  <path
    fill="#fff"
    d="M8.832,25.49072a.625.625,0,0,1-.25488-1.1958l2.74023-1.22021a.62492.62492,0,1,1,.50879,1.1416L9.08594,25.43652A.61731.61731,0,0,1,8.832,25.49072Z"
  />
  <path
    fill="#fff"
    d="M26.42773,14.91943a.62473.62473,0,0,1-.2539-1.1958L28.915,12.50342a.62472.62472,0,1,1,.50781,1.1416l-2.74121,1.22021A.61563.61563,0,0,1,26.42773,14.91943Z"
  />
  <path
    fill="#fff"
    d="M25.16113,18.22021a.62473.62473,0,0,1-.2539-1.1958l2.74023-1.22021a.62472.62472,0,1,1,.50781,1.1416L25.415,18.166A.61581.61581,0,0,1,25.16113,18.22021Z"
  />
  <path
    fill="#e00"
    d="M18.95166,28.63379A9.593,9.593,0,0,1,12.8291,26.4165a.625.625,0,0,1,.7959-.96386,8.37943,8.37943,0,0,0,13.71289-6.1045.61006.61006,0,0,1,.65039-.59814.6249.6249,0,0,1,.59766.65088,9.65521,9.65521,0,0,1-9.63428,9.23291Z"
  />
  <path
    fill="#e00"
    d="M9.97461,19.22607l-.02881-.00048a.62539.62539,0,0,1-.59619-.65284A9.6291,9.6291,0,0,1,25.10547,11.5835a.62531.62531,0,0,1-.79688.96386,8.37815,8.37815,0,0,0-13.71,6.082A.62532.62532,0,0,1,9.97461,19.22607Z"
  />
</svg>

<svg viewBox="0 0 38 38">
    <path d="M28 1H10a9 9 0 0 0-9 9v18a9 9 0 0 0 9 9h18a9 9 0 0 0 9-9V10a9 9 0 0 0-9-9"/>
    <path fill="#fff" d="M10.099 22.19a.625.625 0 0 1-.255-1.196l2.74-1.22a.625.625 0 1 1 .51 1.142l-2.741 1.22a.6.6 0 0 1-.254.054m-1.267 3.3a.625.625 0 0 1-.255-1.195l2.74-1.22a.625.625 0 1 1 .51 1.141l-2.741 1.22a.6.6 0 0 1-.254.055M26.428 14.92a.625.625 0 0 1-.254-1.196l2.741-1.22a.625.625 0 1 1 .508 1.141l-2.741 1.22a.6.6 0 0 1-.254.054m-1.267 3.301a.625.625 0 0 1-.254-1.196l2.74-1.22a.625.625 0 1 1 .508 1.142l-2.74 1.22a.6.6 0 0 1-.254.054"/>
    <path fill="#e00" d="M18.952 28.634a9.6 9.6 0 0 1-6.123-2.218.625.625 0 0 1 .796-.963 8.38 8.38 0 0 0 13.713-6.105.61.61 0 0 1 .65-.598.625.625 0 0 1 .598.65 9.655 9.655 0 0 1-9.634 9.234m-8.977-9.408h-.03a.625.625 0 0 1-.595-.653 9.63 9.63 0 0 1 15.755-6.99.625.625 0 0 1-.796.964 8.378 8.378 0 0 0-13.71 6.082.625.625 0 0 1-.624.597"/>
</svg>
